X: 42
T: Tombigbee Waltz
C: 1847 A.F. Winnemore
M: 3/4 %% X:3 WJ 2015
L: 1/8
K: G
BA |\
"G"G2 B2 B2 | "G/F#"d4 BA |\
"G/E"G2 B2 B2 | d4 "(E/G#)"B2 |\
"Am"B2 A2 A2 | "D/F#"A2 B2 d2 |\
[1 "C"e4 d2 | "D7"B3 c :|\
[2 "C"e2 d2 "D"F2 | "G"G4 |]
|: d2 |\
"G"g4 d2 | "G/B"g4 d2 |\
"C"e3 d c2 | "G"d4 B2 "^I"|\
"Am"B2 A2 A2 | "D7"A2 B2 d2 |\
[1 "C"e4 d2 | "D"B4 :|\
[2 "C"e2 d2 "D"F2 | "G"G4 |]


